!!!!SEGMENT: pl-wtm--r-1227--011_lodwigowski-edward-stefan-na-tem-twardem-szczudle-mojem.krn
!!!id: 18xx:1951
!!!COM: Łodwigowski, Edward Stefan
!!!OTL: Na tem twardem szczudle mojem
!!!PDT:
!!!SMS-siglum: PL-Wtm
!!!SMS-shelfmark: R 1227
!!!NIFC-rismID: 1001084044
!!!URL-scan: http://repozytorium.nifc.pl/skany/pl-wtm-nut--r1226-1227
!!!ONB-nifc: UWAGA: No. 83
!!!SMS-variant:
!!!SMS-altvar:
!!!OMD: Tempo di Marcia
**kern	**fing	**kern	**fing	**dynam
*part1	*part1	*part1	*part1	*part1
*staff2	*staff2	*staff1	*staff1	*
*I"Fortepian	*	*I"Fortepian	*	*
*>[A,A]	*>[A,A]	*>[A,A]	*>[A,A]	*>[A,A]
*>A	*>A	*>A	*>A	*>A
*clefF4	*	*clefG2	*	*
*k[]	*	*k[]	*	*
*M4/4	*	*M4/4	*	*
*met(c)	*	*met(c)	*	*
*all\right	*	*all\right	*	*
!	!	!LO:TX:a:Bi:t=No. 83	!	!
!	!	!LO:TX:a:i:t=Na tem twardem szczudle mojem. P. L. P.	!	!
4r	.	8g'/L	3	f
.	.	8g'/J	2	.
=1	=1	=1	=1	=1
*	*	*	*^	*
8C'\L	4	4.cc 4.e/	5	1	.
8E'\	2	.	.	.	.
8G'\	1	.	.	.	.
8E'\J	2	8g/	2	.	.
8C'/L	1	4.ee 4.g/	1 5	.	.
8GG'/	5	.	.	.	.
8AA'/	4	.	.	.	.
8BB'/J	.	8dd 8f/	.	.	.
*	*	*	*v	*v	*
=2	=2	=2	=2	=2
*	*ela	*	*	*
[4C/	2-5	(8ddL 8f/	1 5	.
*	*Xela	*	*	*
.	.	8ccJ 8e/)	1 4	.
8C/L]	.	4cc 4e/	1 5	.
16GL 16E 16C'/	.	.	.	.
16GJJ 16E 16C'/	.	.	.	.
8GL 8E 8C'/	.	4r	.	.
8GJ 8E 8C'/	.	.	.	.
8G 8E 8C'/	.	8g'/L	3	.
8r	.	8g'/J	1	.
=3	=3	=3	=3	=3
8C'\L	4	4.cc 4.e/	.	.
8E'\	2	.	.	.
8G'\	.	.	.	.
8E'\J	.	8g/	.	.
8C'/L	1	4.ee 4.g/	.	.
8GG'/	5	.	.	.
8AA'/	.	.	.	.
8BB'/J	.	8dd 8f/	.	.
=4	=4	=4	=4	=4
*	*ela	*	*	*
[4C/	2-5	(8ddL 8f/	.	.
*	*Xela	*	*	*
.	.	8ccJ 8e/)	.	.
8C/L]	.	4cc 4e/	.	.
16GL 16E 16C'/	.	.	.	.
16GJJ 16E 16C'/	.	.	.	.
8GL 8E 8C'/	.	4r	.	.
8GJ 8E 8C'/	.	.	.	.
8G 8E 8C'/	.	(8ccL 8e/	5	.
8r	.	8bJ 8g/)	4	.
!!LO:LB:g=original
=5	=5	=5	=5	=5
*^	*	*	*	*
*	*2\right	*	*	*	*
!	!LO:N:vis=2	!	!	!	!
2C/	8C\L	.	4a 4f/	1 3	mf
.	(>8A\	.	.	.	.
.	8F\	.	4a 4f/	.	.
.	8A\J)	.	.	.	.
!	!LO:N:vis=2	!	!	!	!
2C/	8C\L	.	(4cc 4a/	.	.
.	(>8A\	.	.	.	.
.	8F\	.	8bL 8g/	.	.
.	8A\J)	.	8aJ 8f/)	.	.
=6	=6	=6	=6	=6	=6
!	!LO:N:vis=2	!	!	!	!
2C/	8C\L	.	(8aL 8f/	4 2	.
.	(>8G\	.	8gJ 8e/)	.	.
.	8E\	.	4g 4e'/	.	.
.	8G\J)	.	.	.	.
!	!LO:N:vis=2	!	!	!	!
2C/	8C\L	.	4r	.	.
.	(>8G\	.	.	.	.
.	8E\	.	8ccL 8e\	4	.
.	8G\J)	.	8eeJ 8cc\	5	.
*v	*v	*	*	*	*
=7	=7	=7	=7	=7
8GG\L	.	4ee 4cc\	.	.
8G'\	.	.	.	.
8G'\	.	4dd 4b\	.	.
8G'\J	.	.	.	.
8C\L	.	4r	.	.
8G\	1	.	.	.
8E\	2	(8eeL 8cc\	1 3	<
8C\J	3	8ggJ 8ee\)	.	.
=8	=8	=8	=8	=8
*^	*	*	*	*
8GG\L	4ryy	.	4gg 4ee\	.	.
8G\J	.	.	.	.	[
*	*	*below	*2\right	*	*
2G 2GG;\	2ryy	.	2ff 2dd;\	.	sf
4G 4C/	8C\L	5	8eeL 8cc\	1 3	.
.	8E\J	3	8cc\J	1	.
*v	*v	*	*	*	*
=9	=9	=9	=9	=9
*	*	*^	*	*
(8F\L	2	(4dd 4a\	2ryy	2 5	.
8A\	1	.	.	.	.
8d|\J)	2	4a 4f/)	.	.	.
8r	.	.	.	.	.
(8G\L	4	(4.b^/	2f^\	.	.
8B\	.	.	.	.	.
8d|\J)	.	.	.	.	>
8r	.	8g/)	.	.	.
=10	=10	=10	=10	=10	=10
8C\L	.	(4dd/	4f\	.	.
8G\	.	.	.	.	]
8c\	.	[4cc/)	[4e\	.	.
[8G\J	.	.	.	.	.
8G] 8C\	.	8cc/]	8e\]	.	.
8r	.	8r	8r	.	.
*	*	*v	*v	*	*
==:|!	==:|!	==:|!	==:|!	==:|!
*-	*-	*-	*-	*-
!!!system-decoration: {p1}
!!!RDF**kern: > = above
!!!RDF**kern: < = below
!!!RDF**kern: | = vertical stroke
!!!ENC: Andrzej Gręziak
!!!END: 2021-04-19
!!!ENC: Andrzej Kubiczek
!!!END: 2021-05-02
